src/section/s3/8.svg

<svg width="92" height="89" viewBox="0 0 92 89" fill="none" xmlns="http://www.w3.org/2000/svg">
<path fill-rule="evenodd" clip-rule="evenodd" d="M0.233398 46.7133C0.233398 20.9557 20.6301 0 45.7006 0C70.771 0 91.1677 20.9557 91.1677 46.7133C91.1677 62.0208 83.8468 76.3777 71.5857 85.1166L69.6336 82.2253C80.9739 74.1449 87.7419 60.8684 87.7419 46.7133C87.7419 22.8964 68.8821 3.51967 45.7006 3.51967C22.519 3.51967 3.65918 22.8964 3.65918 46.7133C3.65918 60.8684 10.4295 74.1425 21.7675 82.2253L19.8154 85.1166C7.5521 76.3777 0.233398 62.0208 0.233398 46.7133ZM72.3871 29.1868V65.1138C72.3871 70.9081 67.7991 75.6218 62.164 75.6218H57.2848L64.6306 85.1514C65.2174 85.9119 65.0932 87.0202 64.3508 87.623C64.0371 87.8781 63.6624 88.0033 63.2901 88.0033C62.7823 88.0033 62.2836 87.7737 61.945 87.3355L58.8691 83.3452C58.7698 83.3637 58.6705 83.3776 58.5667 83.3776H32.8417C32.7221 83.3776 32.6048 83.3637 32.4919 83.3405L29.4114 87.3355C29.0729 87.7737 28.5719 88.0033 28.0664 88.0033C27.6963 88.0033 27.3194 87.8781 27.0057 87.623C26.2632 87.0202 26.1391 85.9119 26.7259 85.1514L34.0717 75.6218H29.1925C23.5529 75.6218 18.9648 70.9081 18.9648 65.1138V29.1868C18.9648 21.5284 27.7008 17.8047 45.676 17.8047C63.6489 17.8047 72.3871 21.5284 72.3871 29.1868ZM47.3866 50.903H68.9613V32.5418H47.3866V50.903ZM68.9523 29.0245C68.7379 22.6692 56.2083 21.3244 45.676 21.3244C35.1436 21.3244 22.614 22.6692 22.3974 29.0245H68.9523ZM43.9631 32.5418H22.3884V50.903H43.9631V32.5418ZM38.4385 75.6195L35.173 79.8556H56.1767L52.9112 75.6195H38.4385ZM22.3884 65.1138C22.3884 68.9674 25.4395 72.1022 29.1903 72.1022H62.1594C65.9102 72.1022 68.9613 68.9674 68.9613 65.1138V54.4227H22.3884V65.1138ZM25.4754 62.6955C25.4754 59.4842 28.0188 56.8711 31.1444 56.8711C34.27 56.8711 36.8111 59.4842 36.8111 62.6955C36.8111 65.9045 34.27 68.5176 31.1444 68.5176C28.0188 68.5176 25.4754 65.9068 25.4754 62.6955ZM28.9012 62.6932C28.9012 63.9638 29.9077 64.9979 31.1444 64.9979C32.3811 64.9979 33.3876 63.9638 33.3876 62.6932C33.3876 61.4226 32.3811 60.3885 31.1444 60.3885C29.9077 60.3885 28.9012 61.4226 28.9012 62.6932ZM65.8719 62.6955C65.8719 59.4842 63.3285 56.8711 60.2029 56.8711C57.0773 56.8711 54.5361 59.4842 54.5361 62.6955C54.5361 65.9068 57.0795 68.5175 60.2029 68.5175C63.3308 68.5175 65.8719 65.9044 65.8719 62.6955ZM60.2051 64.9979C58.9684 64.9979 57.9619 63.9638 57.9619 62.6932C57.9619 61.4226 58.9684 60.3884 60.2051 60.3884C61.4418 60.3884 62.4484 61.4226 62.4484 62.6932C62.4484 63.9638 61.4418 64.9979 60.2051 64.9979Z" fill="black"/>
</svg>

<?xml version="1.0" encoding="utf-8"?>
<!-- Generator: Adobe Illustrator 27.6.1, SVG Export Plug-In . SVG Version: 6.00 Build 0)  -->
<svg version="1.1" id="圖層_1" xmlns="http://www.w3.org/2000/svg" xmlns:xlink="http://www.w3.org/1999/xlink" x="0px" y="0px"
	 viewBox="0 0 92 89" style="enable-background:new 0 0 92 89;" xml:space="preserve">
<style type="text/css">
	.st0{fill-rule:evenodd;clip-rule:evenodd;fill:#FFFFFF;}
</style>
<path class="st0" d="M0.2,46.7C0.2,21,20.6,0,45.7,0c25.1,0,45.5,21,45.5,46.7c0,15.3-7.3,29.7-19.6,38.4l-2-2.9
	C81,74.1,87.7,60.9,87.7,46.7c0-23.8-18.9-43.2-42-43.2c-23.2,0-42,19.4-42,43.2c0,14.2,6.8,27.4,18.1,35.5l-2,2.9
	C7.6,76.4,0.2,62,0.2,46.7z M72.4,29.2v35.9c0,5.8-4.6,10.5-10.2,10.5h-4.9l7.3,9.5c0.6,0.8,0.5,1.9-0.3,2.5
	C64,87.9,63.7,88,63.3,88c-0.5,0-1-0.2-1.3-0.7l-3.1-4c-0.1,0-0.2,0-0.3,0H32.8c-0.1,0-0.2,0-0.3,0l-3.1,4c-0.3,0.4-0.8,0.7-1.3,0.7
	c-0.4,0-0.7-0.1-1.1-0.4c-0.7-0.6-0.9-1.7-0.3-2.5l7.3-9.5h-4.9c-5.6,0-10.2-4.7-10.2-10.5V29.2c0-7.7,8.7-11.4,26.7-11.4
	C63.6,17.8,72.4,21.5,72.4,29.2z M47.4,50.9H69V32.5H47.4V50.9z M69,29c-0.2-6.4-12.7-7.7-23.3-7.7c-10.5,0-23.1,1.3-23.3,7.7H69z
	 M44,32.5H22.4v18.4H44V32.5z M38.4,75.6l-3.3,4.2h21l-3.3-4.2H38.4z M22.4,65.1c0,3.9,3.1,7,6.8,7h33c3.8,0,6.8-3.1,6.8-7V54.4
	H22.4V65.1z M25.5,62.7c0-3.2,2.5-5.8,5.7-5.8s5.7,2.6,5.7,5.8c0,3.2-2.5,5.8-5.7,5.8S25.5,65.9,25.5,62.7z M28.9,62.7
	c0,1.3,1,2.3,2.2,2.3s2.2-1,2.2-2.3s-1-2.3-2.2-2.3S28.9,61.4,28.9,62.7z M65.9,62.7c0-3.2-2.5-5.8-5.7-5.8s-5.7,2.6-5.7,5.8
	s2.5,5.8,5.7,5.8C63.3,68.5,65.9,65.9,65.9,62.7z M60.2,65C59,65,58,64,58,62.7s1-2.3,2.2-2.3c1.2,0,2.2,1,2.2,2.3S61.4,65,60.2,65z
	"/>
</svg>
